!!!OTL: Meiden
!!!ARE: Europa, Mitteleuropa, Deutschland
!!!SCT: A0253
!!!YEM: Copyright 1995, estate of Helmut Schaffrath.
**kern
*ICvox
*Ivox
*M6/2
*k[]
*a:
{2a
=1
1.a
1.ee
=2
1ggn
2ffn
1ee
2dd
=3
1ccn
1b}
{1b
=4
1a
2e
1gn
2fn
=5
1.e
1r}
{2a
=6
1.a
1.ee
=7
1ggn
2ffn
1ee
2dd
=8
1ccn
1b}
{1b
=9
1a
2e
1gn
2fn
=10
1.e
1r}
{2e
=11
1a
2b
1ccn
2dd
=12
1b
2r}
{2a
2b
2ccn
=13
1.dd
1.ffn
=14
1.ee
1a}
{2a
=15
1ee
2dd
1ccn
2b
=16
1a
2r}
{1b
2a
=17
1.gn
1.b
=18
1.f#}
{1.e
=19
1a
2ccn
1b
2a
=20
0b}
{1ee
=21
1ee
2dd
2ccn
2a
2b
=22
0a
2r}
==
!!!AGN: Romanze, Ballade, Lied
!! Locheimer Lbb. 1450 No. 26
!!!ONB: ESAC (Essen Associative Code) Database: ALTDEU
!!!AMT: compound duple
!!!AIN: vox
!!!EED: Helmut Schaffrath
!!!EEV: 1.0
*-
